X:2
T:Garryowen
R:march
H:General Custer's Favourite tune...
H:Also played in G
Z:id:hn-march-2
M:6/8
Q:3/8=120
K:D
dc|BAG FED|FGF Fdc|BAG FED|EFE Edc|
BAG FED|FGF F2A|ABc dFF|FEE E:|
|:FG|A2F A2F|A2F Adc|B2G B2G|B2G B2c|
d2e f2e|dcB A2A|ABc dFF|FEE E:|

